assets/img/preloader.svg

<svg width="40" height="40" viewBox="0 0 40 40" fill="none" xmlns="http://www.w3.org/2000/svg">
<path d="M40 20.0022C40 31.0025 30.9981 40.0034 19.9966 40C14.4975 40 9.51892 37.778 5.9031 34.1866C4.43075 32.7212 5.48194 30.2048 7.56035 30.2048H24.5609C28.6869 30.2048 32.1589 26.9557 32.2548 22.8302C32.354 18.5813 28.9266 15.0926 24.7013 15.0926H15.3741C14.2236 15.0926 13.2203 15.9588 13.145 17.1057C13.0628 18.3622 14.0592 19.4099 15.2987 19.4099H24.6054C26.3482 19.4099 27.848 20.7451 27.9336 22.4844C28.026 24.3434 26.54 25.8841 24.6978 25.8841H5.76271C2.61257 25.8841 0.0342417 23.354 1.02727e-06 20.2042C1.02727e-06 20.1357 1.02727e-06 20.0706 1.02727e-06 20.0022C-0.00342304 9.11481 8.55333 0.305635 19.4384 0.00777294C25.1601 -0.149717 30.3578 2.09624 34.0969 5.81437C35.5693 7.27972 34.5215 9.79613 32.4431 9.79613H15.2987C11.07 9.79613 7.64253 13.2883 7.74525 17.5371C7.84455 21.6592 11.3166 24.9049 15.4391 24.9049H24.6225C25.773 24.9049 26.7762 24.0387 26.8516 22.8918C26.9337 21.6353 25.9373 20.5876 24.6978 20.5876H15.3912C13.6483 20.5876 12.1486 19.2524 12.063 17.5131C11.9706 15.6541 13.4566 14.1134 15.2987 14.1134H34.2373C37.384 14.1134 39.9658 16.6401 39.9966 19.7865C40 19.8584 40 19.9303 40 20.0022Z" fill="#6B61FC"/>
</svg>

<svg xmlns="http://www.w3.org/2000/svg" width="40" height="40" fill="none"><path fill="#6B61FC" d="M40 20.002c0 11-9.002 20.001-20.003 19.998-5.5 0-10.478-2.222-14.094-5.813-1.472-1.466-.421-3.982 1.657-3.982h17c4.127 0 7.599-3.25 7.695-7.375.099-4.249-3.328-7.737-7.554-7.737h-9.327c-1.15 0-2.154.866-2.229 2.013a2.16 2.16 0 0 0 2.154 2.304h9.306c1.743 0 3.243 1.335 3.329 3.074a3.24 3.24 0 0 1-3.236 3.4H5.763c-3.15 0-5.729-2.53-5.763-5.68v-.202A19.914 19.914 0 0 1 19.438.008a19.93 19.93 0 0 1 14.659 5.806c1.472 1.466.425 3.982-1.654 3.982H15.3c-4.229 0-7.656 3.492-7.554 7.741.1 4.122 3.572 7.368 7.694 7.368h9.183c1.151 0 2.154-.866 2.23-2.013a2.16 2.16 0 0 0-2.154-2.304H15.39c-1.743 0-3.242-1.336-3.328-3.075a3.24 3.24 0 0 1 3.236-3.4h18.938c3.147 0 5.729 2.527 5.76 5.674q.004.107.003.215"/></svg>
